Papirus/48x48/apps/zen-browser.svg

<svg width="48" height="48" version="1.1" xmlns="http://www.w3.org/2000/svg">
 <path x="0" y="0" width="16" height="16" d="m9 5h29.999999a5 5 0 0 1 5.000001 5v30a5 5 0 0 1-5.000001 5h-29.999999a5 5 0 0 1-5-5v-30a5 5 0 0 1 5-5z" style="opacity:.2"/>
 <path x="0" y="0" width="16" height="16" d="m9 4h29.999999a5 5 0 0 1 5.000001 5v30a5 5 0 0 1-5.000001 5h-29.999999a5 5 0 0 1-5-5v-30a5 5 0 0 1 5-5z" style="fill:#e3e1d4"/>
 <path d="m24 7a18 18 0 0 0-18 18 18 18 0 0 0 18 18 18 18 0 0 0 18-18 18 18 0 0 0-18-18zm0 4a14 14 0 0 1 14 14 14 14 0 0 1-14 14 14 14 0 0 1-14-14 14 14 0 0 1 14-14z" style="opacity:.2"/>
 <path d="m24 6a18 18 0 0 0-18 18 18 18 0 0 0 18 18 18 18 0 0 0 18-18 18 18 0 0 0-18-18zm0 4a14 14 0 0 1 14 14 14 14 0 0 1-14 14 14 14 0 0 1-14-14 14 14 0 0 1 14-14z" style="fill:#f76f53"/>
 <path d="M 23.999999,13.5 A 11.50044,11.50044 0 0 0 12.5,24.999999 11.50044,11.50044 0 0 0 23.999999,36.5 11.50044,11.50044 0 0 0 35.5,24.999999 11.50044,11.50044 0 0 0 23.999999,13.5 Z m 0.02339,2.541695 a 8.9816949,8.9816949 0 0 1 8.981695,8.981695 8.9816949,8.9816949 0 0 1 -8.981695,8.981695 8.9816949,8.9816949 0 0 1 -8.981695,-8.981695 8.9816949,8.9816949 0 0 1 8.981695,-8.981695 z" style="opacity:.2"/>
 <path d="M 23.999999,12.5 A 11.50044,11.50044 0 0 0 12.5,23.999999 11.50044,11.50044 0 0 0 23.999999,35.5 11.50044,11.50044 0 0 0 35.5,23.999999 11.50044,11.50044 0 0 0 23.999999,12.5 Z m 0.02339,2.541695 a 8.9816949,8.9816949 0 0 1 8.981695,8.981695 8.9816949,8.9816949 0 0 1 -8.981695,8.981695 8.9816949,8.9816949 0 0 1 -8.981695,-8.981695 8.9816949,8.9816949 0 0 1 8.981695,-8.981695 z" style="fill:#f76f53"/>
 <path d="m24 18.5a6.5 6.5 0 0 0-6.5 6.5 6.5 6.5 0 0 0 6.5 6.5 6.5 6.5 0 0 0 6.5-6.5 6.5 6.5 0 0 0-6.5-6.5zm0 1.5a5 5 0 0 1 5 5 5 5 0 0 1-5 5 5 5 0 0 1-5-5 5 5 0 0 1 5-5z" style="opacity:.2"/>
 <path d="m24 17.5a6.5 6.5 0 0 0-6.5 6.5 6.5 6.5 0 0 0 6.5 6.5 6.5 6.5 0 0 0 6.5-6.5 6.5 6.5 0 0 0-6.5-6.5zm0 1.5a5 5 0 0 1 5 5 5 5 0 0 1-5 5 5 5 0 0 1-5-5 5 5 0 0 1 5-5z" style="fill:#f76f53"/>
 <path d="m24 12.5c-6.351174 2.43e-4 -11.499757 5.148826-11.5 11.5 0.0081 0.166902 0.01981 0.333609 0.03516 0.5 0.267483-6.141519 5.317512-10.986795 11.46484-11 6.147328 0.0132 11.197357 4.858481 11.464844 11 0.01535-0.166391 0.027071-0.333098 0.035156-0.5-2.43e-4 -6.351174-5.148826-11.499757-11.5-11.5zm8.990234 12.019531c0.0098-0.165189 0.01499-0.330616 0.01563-0.496093zm-17.910234 0.003907c-0.01767 0.166271-0.03062 0.333002-0.03898 0.5-4.01e-4 4.961021 4.021401 8.982823 8.982422 8.982421 4.96102 4.01e-4 8.982822-4.021401 8.982421-8.982421-6.37e-4 -0.165477-6e-3 -0.330905-0.01586-0.496094-0.26693 4.757179-4.201898 8.478094-8.96656 8.478515-4.757041-0.012949-8.679026-3.732722-8.943443-8.482421z" style="fill:#ffffff;opacity:.2"/>
 <path d="m24 6c-9.941125 0-18 8.058875-18 18 0.0094 0.166822 0.021117 0.333505 0.035156 0.5 0.2704174-9.731695 8.229405-17.484742 17.964844-17.5 9.650093 0.0011305 17.582429 7.612106 17.982422 17.253906 0.006458-0.084593 0.012317-0.16923 0.017578-0.253906 0-9.941125-8.058875-18-18-18zm17.982422 18.253906c-0.325393 23.066206 0.017578 25.788846 0.017578 0.746094-7.02e-4 -0.248793-0.0066-0.497544-0.01758-0.746094zm-4.002422 0.003906c-0.140406 7.623527-6.355186 13.732844-13.98 13.742188-7.525714-0.016197-13.692241-5.979069-13.961-13.5-0.016 0.16642-0.02897 0.333113-0.039 0.5 0 7.731986 6.268014 14 14 14s14-6.268014 14-14c5.2e-5 -0.247525-0.0069-0.495008-0.02-0.742188z" style="fill:#ffffff;opacity:.2"/>
 <path d="m24 17.5c-3.589851 0-6.5 2.910149-6.5 6.5 0.0053 0.167057 0.01701 0.333847 0.03516 0.5 0.260745-3.379771 3.07504-5.991709 6.464844-6 3.356248 7.23e-4 6.160089 2.556594 6.470703 5.898438 0.013842-0.132481 0.023612-0.265357 0.029293-0.398438 0-3.589851-2.910149-6.5-6.5-6.5zm4.967 6.921875c-0.218687 2.582747-2.375023 4.570154-4.967 4.578125-2.562442-0.0072-4.704765-1.950391-4.961-4.5-0.02138 0.165908-0.03435 0.332785-0.039 0.5 0 2.761424 2.238576 5 5 5s5-2.238576 5-5c1.1e-4 -0.193188-0.01077-0.38622-0.033-0.578125z" style="fill:#ffffff;opacity:.2"/>
</svg>

<svg xmlns="http://www.w3.org/2000/svg" width="48" height="48" version="1.1">
 <path style="opacity:0.2" d="m 9 5 h 30 a 5 5 0 0 1 5 5 v 30 a 5 5 0 0 1-5 5 h -30 a 5 5 0 0 1-5-5 v -30 a 5 5 0 0 1 5-5 z"/>
 <path style="fill:#e3e1d4" d="m 9 4 h 30 a 5 5 0 0 1 5 5 v 30 a 5 5 0 0 1-5 5 h -30 a 5 5 0 0 1-5-5 v -30 a 5 5 0 0 1 5-5 z"/>
 <path style="opacity:0.1" d="M 24,18.5 A 6.5,6.5 0 0 0 17.5,25 6.5,6.5 0 0 0 24,31.5 6.5,6.5 0 0 0 30.5,25 6.5,6.5 0 0 0 24,18.5 Z M 24,20 A 5,5 0 0 1 29,25 5,5 0 0 1 24,30 5,5 0 0 1 19,25 5,5 0 0 1 24,20 Z M 24,13.5 A 11.5,11.5 0 0 0 12.5,25 11.5,11.5 0 0 0 24,36.5 11.5,11.5 0 0 0 35.5,25 11.5,11.5 0 0 0 24,13.5 Z M 24.023,16.042 A 8.9817,8.9817 0 0 1 33.005,25.023 8.9817,8.9817 0 0 1 24.023,34.005 8.9817,8.9817 0 0 1 15.042,25.023 8.9817,8.9817 0 0 1 24.023,16.042 Z M 24,7 A 18,18 0 0 0 6,25 18,18 0 0 0 24,43 18,18 0 0 0 42,25 18,18 0 0 0 24,7 Z M 24,11 A 14,14 0 0 1 38,25 14,14 0 0 1 24,39 14,14 0 0 1 10,25 14,14 0 0 1 24,11 Z"/>
 <path style="fill:#f76f53" d="M 24,17.5 A 6.5,6.5 0 0 0 17.5,24 6.5,6.5 0 0 0 24,30.5 6.5,6.5 0 0 0 30.5,24 6.5,6.5 0 0 0 24,17.5 Z M 24,19 A 5,5 0 0 1 29,24 5,5 0 0 1 24,29 5,5 0 0 1 19,24 5,5 0 0 1 24,19 Z M 24,12.5 A 11.5,11.5 0 0 0 12.5,24 11.5,11.5 0 0 0 24,35.5 11.5,11.5 0 0 0 35.5,24 11.5,11.5 0 0 0 24,12.5 Z M 24.023,15.042 A 8.9817,8.9817 0 0 1 33.005,24.023 8.9817,8.9817 0 0 1 24.023,33.005 8.9817,8.9817 0 0 1 15.042,24.023 8.9817,8.9817 0 0 1 24.023,15.042 Z M 24,6 A 18,18 0 0 0 6,24 18,18 0 0 0 24,42 18,18 0 0 0 42,24 18,18 0 0 0 24,6 Z M 24,10 A 14,14 0 0 1 38,24 14,14 0 0 1 24,38 14,14 0 0 1 10,24 14,14 0 0 1 24,10 Z"/>
 <path style="fill:#ffffff;opacity:0.2" d="M 24 6 A 18 18 0 0 0 6 24 A 18 18 0 0 0 6.0352 24.5 A 18 18 0 0 1 24 7 A 18 18 0 0 1 41.982 24.254 A 18 18 0 0 0 42 24 A 18 18 0 0 0 24 6 z M 24 12.5 A 11.5 11.5 0 0 0 12.5 24 A 11.5 11.5 0 0 0 12.543 24.5 A 11.5 11.5 0 0 1 24 13.5 A 11.5 11.5 0 0 1 35.477 24.275 A 11.5 11.5 0 0 0 35.5 24 A 11.5 11.5 0 0 0 24 12.5 z M 24 17.5 A 6.5 6.5 0 0 0 17.5 24 A 6.5 6.5 0 0 0 17.557 24.5 A 6.5 6.5 0 0 1 24 18.5 A 6.5 6.5 0 0 1 30.463 24.334 A 6.5 6.5 0 0 0 30.5 24 A 6.5 6.5 0 0 0 24 17.5 z M 37.98 24.258 A 14 14 0 0 1 24 38 A 14 14 0 0 1 10.039 24.5 A 14 14 0 0 0 10 25 A 14 14 0 0 0 24 39 A 14 14 0 0 0 38 25 A 14 14 0 0 0 37.98 24.258 z M 28.953 24.357 A 5 5 0 0 1 24 29 A 5 5 0 0 1 19.066 24.5 A 5 5 0 0 0 19 25 A 5 5 0 0 0 24 30 A 5 5 0 0 0 29 25 A 5 5 0 0 0 28.953 24.357 z M 15.092 24.523 A 8.9817 8.9817 0 0 0 15.043 25.023 A 8.9817 8.9817 0 0 0 24.023 34.006 A 8.9817 8.9817 0 0 0 33.006 25.023 A 8.9817 8.9817 0 0 0 32.977 24.721 A 8.9817 8.9817 0 0 1 24.023 33.006 A 8.9817 8.9817 0 0 1 15.092 24.523 z"/>
 <path style="fill:#ffffff;opacity:0.2" d="M 9 4 A 5 5 0 0 0 4 9 L 4 10 A 5 5 0 0 1 9 5 L 39 5 A 5 5 0 0 1 44 10 L 44 9 A 5 5 0 0 0 39 4 L 9 4 z"/>
</svg>
